fs/guest_28_regular.svg

<svg viewBox="0 0 28 28" fill="none" xmlns="http://www.w3.org/2000/svg" height="1em" width="1em">
  <path d="M10.5 12.5C10.5 10.567 12.067 9 14 9C15.933 9 17.5 10.567 17.5 12.5C17.5 14.433 15.933 16 14 16C12.067 16 10.5 14.433 10.5 12.5ZM14 10.5C12.8954 10.5 12 11.3954 12 12.5C12 13.6046 12.8954 14.5 14 14.5C15.1046 14.5 16 13.6046 16 12.5C16 11.3954 15.1046 10.5 14 10.5ZM10.7001 17C9.84 17 8.904 17.6024 8.87933 18.6719C8.86205 19.421 8.99609 20.5246 9.77391 21.4475C10.5705 22.3927 11.9142 23 14 23C16.0858 23 17.4295 22.3927 18.2261 21.4475C19.0039 20.5246 19.1379 19.421 19.1207 18.6719C19.096 17.6024 18.16 17 17.2999 17H10.7001ZM10.3789 18.7065C10.38 18.6583 10.3969 18.6207 10.4414 18.5833C10.4931 18.5399 10.5836 18.5 10.7001 18.5H17.2999C17.4164 18.5 17.5069 18.5399 17.5586 18.5833C17.6031 18.6207 17.6199 18.6583 17.6211 18.7065C17.6342 19.2765 17.5238 19.9532 17.0791 20.4809C16.6531 20.9864 15.7962 21.5 14 21.5C12.2038 21.5 11.3469 20.9864 10.9209 20.4809C10.4762 19.9532 10.3658 19.2765 10.3789 18.7065ZM18.8965 4H20.25C21.7688 4 23 5.23122 23 6.75V23.25C23 24.7688 21.7688 26 20.25 26H7.75C6.23122 26 5 24.7688 5 23.25V6.75C5 5.23122 6.23122 4 7.75 4H9.10352C9.42998 2.84575 10.4912 2 11.75 2H16.25C17.5088 2 18.57 2.84575 18.8965 4ZM9.10352 5.5H7.75C7.05964 5.5 6.5 6.05964 6.5 6.75V23.25C6.5 23.9404 7.05964 24.5 7.75 24.5H20.25C20.9404 24.5 21.5 23.9404 21.5 23.25V6.75C21.5 6.05964 20.9404 5.5 20.25 5.5H18.8965C18.57 6.65425 17.5088 7.5 16.25 7.5H11.75C10.4912 7.5 9.42998 6.65425 9.10352 5.5ZM10.5 4.75C10.5 5.44036 11.0596 6 11.75 6H16.25C16.9404 6 17.5 5.44036 17.5 4.75C17.5 4.05964 16.9404 3.5 16.25 3.5H11.75C11.0596 3.5 10.5 4.05964 10.5 4.75Z" fill="#212121"/>
</svg>

<svg viewBox="0 0 28 28" fill="none" xmlns="http://www.w3.org/2000/svg" height="1em" width="1em">
  <path d="M10.5 12.5a3.5 3.5 0 1 1 7 0 3.5 3.5 0 0 1-7 0Zm3.5-2a2 2 0 1 0 0 4 2 2 0 0 0 0-4ZM10.7 17c-.86 0-1.796.602-1.82 1.672-.018.749.116 1.853.894 2.776C10.57 22.393 11.914 23 14 23s3.43-.607 4.226-1.552c.778-.923.912-2.027.895-2.776C19.096 17.602 18.16 17 17.3 17h-6.6Zm-.321 1.706a.154.154 0 0 1 .062-.123.407.407 0 0 1 .26-.083H17.3c.116 0 .207.04.259.083a.154.154 0 0 1 .062.123c.013.57-.097 1.247-.542 1.775-.426.505-1.283 1.019-3.079 1.019-1.796 0-2.653-.514-3.08-1.02-.444-.527-.554-1.204-.541-1.774ZM18.897 4h1.353A2.75 2.75 0 0 1 23 6.75v16.5A2.75 2.75 0 0 1 20.25 26H7.75A2.75 2.75 0 0 1 5 23.25V6.75A2.75 2.75 0 0 1 7.75 4h1.354a2.751 2.751 0 0 1 2.646-2h4.5a2.75 2.75 0 0 1 2.646 2ZM9.104 5.5H7.75c-.69 0-1.25.56-1.25 1.25v16.5c0 .69.56 1.25 1.25 1.25h12.5c.69 0 1.25-.56 1.25-1.25V6.75c0-.69-.56-1.25-1.25-1.25h-1.354a2.751 2.751 0 0 1-2.646 2h-4.5a2.751 2.751 0 0 1-2.646-2Zm1.396-.75c0 .69.56 1.25 1.25 1.25h4.5a1.25 1.25 0 1 0 0-2.5h-4.5c-.69 0-1.25.56-1.25 1.25Z" fill="#212121"/>
</svg>
